X:1
T:Divine Dependence, CM
T:Divine Dependence, CM
T:Scott Werdebaugh, 2017
T:© 2017 Scott Werdebaugh &amp; New Heart Music. May be freely copied &amp; used for Christian worship or devotions with no alterations. All other rights reserved.
C:Scott Werdebaugh, 2017
Z:© 2017 Scott Werdebaugh & New Heart Music. May be freely copied & used for
Z:Christian worship or devotions with no alterations. All other rights reserved.
%%score ( 1 2 ) ( 3 4 )
L:1/8
Q:1/4=104
M:4/4
K:C
V:1 treble 
V:2 treble 
V:3 bass 
V:4 bass 
V:1
"^Worshipful" [EG]2 | [Ec]2 [FA]2 [GB]2 [EG]2 | [CA]2 [DF]2 [EG]2 [EG]2 | %3
 [DF]2 [CE]2 [B,D]2 [G,C]2 | [B,G]4 z2 [FG]2 | [Ec]2 [DB]2 A2 [EG]2 | [DA]2 [D^F]2 [DG]2 [CE]2 | %7
 [C=F]2 [CE]2 [B,E]3 [B,D] | [G,C]4 z2 |] %9
V:2
 x2 | x8 | x8 | x8 | x8 | x4 (CD) x2 | x8 | x8 | x6 |] %9
V:3
 [C,C]2 | [C,G,]2 [F,C]2 [G,D]2 [C,C]2 | [F,,F,]2 [G,B,]2 [C,C]2 [C,C]2 | %3
 [G,B,]2 [C,G,]2 [G,,G,]2 [C,E,]2 | [G,,D,]4 z2 [G,B,]2 | [C,G,]2 [G,,G,]2 [F,,F,]2 [C,C]2 | %6
 (^F,G,) [D,A,]2 [G,B,]2 [C,G,]2 | [=F,A,]2 [C,G,]2 [G,,G,]3 [G,,F,] | [C,E,]4 z2 |] %9
V:4
 x2 | x8 | x8 | x8 | x8 | x8 | D,2 x6 | x8 | x6 |] %9

